X: 1
T: String Quartet in E\b Major opus 20 no 1 mvt 1
C: Franz Joseph Haydn
%%abc-version 2.0
%%abcx-abcm2ps-target-version 5.9.1 (29 Sep 2008)
%%abc-creator hum2abc beta
%%abcx-conversion-date 2021/02/14 14:38:36
%%abc-copyright Copyright (c) 1994, 2000 Center for Computer Assisted Research in the Humanities
%%abc-edited-by Frances Bennion
%%abcx-initial-encoding-date 1997/04/15
%%gracespace 0 6 6
%%humdrum-veritas 3218389541
%%humdrum-veritas-data 2407941604
%%linebreak <none>
%%barnumbers 0
L: 1/16
M: 4/4
N: Derived from op20n1-01.krn
Q: "Allegro moderato"
%%staves [1 2 3 4]
V: 1
V: 2
V: 3 clef=alto
V: 4 clef=bass
K: Eb
[V:1]B4 c2A2 G4 A2F2 [I:setbarnb2]|
[V:2]z16 |
[V:3]G4 A2F2 E2B,2 C2A,2 |
[V:4]E,2E,,2 z4 E,2E,,2 z4 |
[V:1]E4 D2C2 B,2B,2 B,2B,2 |
[V:2]z16 |
[V:3]G,4 >A,4 G,2G,2 F,2E,2 |
[V:4]E,2E,,2 E,,2E,,2 E,,2E,2 D,2C,2 |
[V:1]B,6 CD EFGA Bcde |
[V:2]z16 |
[V:3]D,2C2 B,2A,2 G,4 z4 |
[V:4]B,,2A,,2 G,,2F,,2 E,,4 z4 |
[V:1]B4 A4 G4 z4 |
[V:2]z16 |
[V:3]z2G2 F2B,2 E4 z4 |
[V:4](3:2:2z8 zE,,2(3G,, E,,G,,(3B,,G,,B,,|
[V:1]B4 c2A2 G4 A2F2 |
[V:2]z16 |
[V:3]G4 A2F2 E2B,2 C2A,2 |
[V:4]E,2E,,2 z4 E,2E,,2 z4 |
[V:1]E4 F3E/F/ G4 =A3G/A/ |
[V:2]z16 |
[V:3]G,2E2 D2B,2 E2D2 C2F2 |
[V:4]z16 |
[V:1]B4 z12 |
[V:2]f4 g2e2 d4 e2c2 |
[V:3]B,2B2 z4 B,2B2 z4 |
[V:4]D4 E2C2 B,2F2 G2E2 |
[V:1]z16 |
[V:2]B4 =A2G2 F2F2 F2F2 |
[V:3]B2B,2 B,2B,2 B,2B,2 =A,2G,2 |
[V:4]D4 >E4 D2D2 C2B,2 |
[V:1]z16 |
[V:2]F6 G=A Bcde fg=ab |
[V:3]F,2E,2 D,2C,2 B,4 z4 |
[V:4]=A,2G2 F2E2 D4 z4 |
[V:1]z2d2 c2F2 B2B,2 z2B,2 |
[V:2]f4 e4 defg afdA |
[V:3]z16 |
[V:4]z16 |
[V:1]B4 cAcA G4 z4 |
[V:2]G4 z4 b4 c'ac'a |
[V:3]G4 AFAF E2E,2 z4 |
[V:4]E,2E,,2 z4 G4 AFAF |
[V:1]g4 afaf edeB AGFE |
[V:2]g4 z4 edeB AGFE |
[V:3]B4 cAcA GdeB AGFE |
[V:4]E2E,2 z4 EDEB, A,G,F,E, |
[V:1]D2B2 B2B2 edeB AGFE |
[V:2]D2B2 B2B2 edeB AGFE |
[V:3]D2B2 B2B2 edeB AGFE |
[V:4]D,2B,2 B,2B,2 EDEB, A,G,F,E, |
[V:1]D2B2 B2B2 e2e2 e2e2 |
[V:2]D4 B8 =A2c2 |
[V:3]D4 F4 G4 C2=A2 |
[V:4]D,8 C,4 F,4 |
[V:1]e8 d4 z4 |
[V:2]c8 B4 z4 |
[V:3]=A8 B4 z4 |
[V:4]B,,8- B,,4 z4 |
[V:1]z8 _d6 c2 |
[V:2]B4 c2A2 G8- |
[V:3]G4 A2F2 =E8- |
[V:4]z8 B,8- |
[V:1]c8- c=efg agba |
[V:2]G8 A4 z4 |
[V:3]E8 F4 z4 |
[V:4]B,8 A,4 z4 |
[V:1]c'2zb a2zg f2z4 zg |
[V:2]z16 |
[V:3]z16 |
[V:4]z16 |
[V:1]a2zg f2ze d6 e2 |
[V:2]z8 _c6 B2 |
[V:3]z8 F6 G2 |
[V:4]z8 A,6 G,2 |
[V:1]e4- edfe g2g2 g2g2 |
[V:2]B4 z12 |
[V:3]G4 z12 |
[V:4]G,4 z12 |
[V:1]=B4 c2ge d4 c2_B/b3/ |
[V:2]A4 G2ec B4 =A2B2 |
[V:3]F4 E2C2 F8 |
[V:4]D,4 E,2C,4 <F,4 D,2 |
[V:1]=a<gf<e d<cg<B B4 =A2G2 |
[V:2]B6 BD D4 C2B,2 |
[V:3]G8 F2F,2 F,2F,2 |
[V:4]E,4 >=E,4 F,2F,,2 F,,2F,,2 |
[V:1]G4 F2=E4 <E4 GF |
[V:2]B,4 =A,2G,4 <G,4 B,A, |
[V:3]F,4 >B,4 B,6 G,=A, |
[V:4]F,,2F,2 F,2F,2 F,,2F,2 F,2F,2 |
[V:1]F4 >=A,4 B,FDB FdBf |
[V:2]=A,4 >F4 F4 z4 |
[V:3]=A,2C4 C2 B,4 z4 |
[V:4]F,,2F,2 E,2E,,2 D,,4 z4 |
[V:1]dbfd' bf'e'd' c'b=ab abab |
[V:2]z16 |
[V:3]z16 |
[V:4]z16 |
[V:1]a4 ^f4 g6 =fe |
[V:2]B8- B2=B2 c2z2 |
[V:3]F4 B4 G4 z4 |
[V:4]D8 E8 |
[V:1]dc=Bc Bcec _B6 c2 |
[V:2]z8 z2_D2 =D2E2 |
[V:3]z8 z2G2 F2=A,2 |
[V:4](3:2:2z8 z=E,2F,2 F,2|
[V:1]zdgf f2z2 >d2gf f2z2 |
[V:2]DBed d2z2 >B2ed d2z2 |
[V:3]B,4 zDGF F2z2 >D2GF |
[V:4]B,,4 zB,ED D4 zB,ED |
[V:1]zdc'b b2a2 ge'd'c' g'2z2 |
[V:2]zBag g2f2 e4 z4 |
[V:3]F2z2 >D2EF G4 z4 |
[V:4]D4 zB,CD E4 zC,,E,,C,, |
[V:1]z8 e8- |
[V:2]z8 zGeG z_GeG |
[V:3]z8 c8- |
[V:4]G,,E,,C,G,, E,C,G,E, C4 B,4 |
[V:1]e4 d4 cgec B2=A2 |
[V:2]zFeF zFdF2 <G2E D2C2 |
[V:3]c4 B4 E2G2 F2E2 |
[V:4]=A,4 B,4 E,4 F,2F,2 |
[V:1]B4 z12 |
[V:2]B,4 z12 |
[V:3]D4 z2B,2 =A,4 G,2C,2 |
[V:4]B,2B,,2 DB,G=E F2F2 EG=AB |
[V:1]z16 |
[V:2]z16 |
[V:3]F,4 z2E,2 D,4 E,2F,2 |
[V:4]B2=A2 G,E,C=A, B,CD>F, G,E,C,F, |
[V:1]z4 dBg=e f2f2 eg=ab |
[V:2]z16 |
[V:3]B,4 z2B2 =A2=A,2 G,2C2 |
[V:4]B,,2B,2 z12 |
[V:1]b2=a2 GEc=A Bcd>F GEC=A, |
[V:2]z16 |
[V:3]F2F,2 z2E2 D2D,2 E,2F,2 |
[V:4]z16 |
[V:1]B,4 fdge2 <f2d ecB=A |
[V:2]z4 dBec2 <d2F GEDC |
[V:3]B,4 z4 B,DFB B,2z2 |
[V:4]B,,B,F,D, B,,2B,,2 B,,2B,,2 B,,2B,,2 |
[V:1]B2>d2 fdge2 <f2d ecB=A |
[V:2]D2>B2 dBec2 <d2F GEDC |
[V:3]z8 B,DFB B,2z2 |
[V:4]B,,B,F,D, B,,2B,,2 B,,2B,,2 B,,2B,,2 |
[V:1]B4- B=AcB dced fegf |
[V:2]D4 z12 |
[V:3]z8 B=AcB dced |
[V:4]B,,B,F,D, B,,2(3:2:2z8 z |
[V:1]a4>g4 f2 e2d2 c2|
[V:2]z16 |
[V:3]f4 >e4 d2c2 B2A2 |
[V:4]z16 |
[V:1]a4 >g4 f2e2 d2c2 |
[V:2]z16 |
[V:3]f4 >e4 d2c2 =B2=A2 |
[V:4]z16 |
[V:1]=B2d2 e2c2 B2B2 c2^F2 |
[V:2]g16- |
[V:3]G2=B2 c2^F2 G2D2 E2C2 |
[V:4]G,4 z4 G,4 z4 |
[V:1]G16- |
[V:2]g2d2 e2c2 =B2B2 c2^F2 |
[V:3]=B,2B,2 C2^F,2 G,2D2 E2C2 |
[V:4]G,,4 z4 G,,4 z4 |
[V:1]G2>^F2 G2>F2 G4 GAGA |
[V:2]G4 z12 |
[V:3]=B,4 z12 |
[V:4]G,,4 z12 |
[V:1]B4 c2A2 G4 A2F2 |
[V:2]G4 A2F2 E2B,2 C2A,2 |
[V:3]z16 |
[V:4]E,2E,,2 z4 E,2E,,2 z4 |
[V:1]E4 D2C2 B,2B,2 B,2B,2 |
[V:2]G,4 >A,4 G,2G2 F2E2 |
[V:3]z16 |
[V:4]E,2E,,2 E,,2E,,2 E,,2E,2 D,2C,2 |
[V:1]B,6 CD E2e2 e2e2 |
[V:2]D2C2 B,2A,2 G,2c2 B2A2 |
[V:3]z8 z2A2 G2F2 |
[V:4]B,,2A,,2 G,,2F,,2 E,,4 z4 |
[V:1]e6 fg a2c2 c2c2 |
[V:2]G2F2 E2_D2 C2A2 G2F2 |
[V:3]E2_D2 C2B,2 A,4 z4 |
[V:4](3:2:2z8 zF2=E2 D2|
[V:1]c6 d=e f2f2 f2f2 |
[V:2]E2_D2 C2B,2 A,2_d2 c2B2 |
[V:3]z8 z2B2 A2G2 |
[V:4]C2B,2 A,2G,2 F,4 z4 |
[V:1]f6 ga b2c'2 _d'2d'2 |
[V:2]A2G2 F2E2 _D2C2 B,2A,2 |
[V:3]F2E2 _D2C2 B,2A,2 G,2F,2 |
[V:4]z16 |
[V:1]_d'2c'4 b4 a2 z4 |
[V:2]G,4 G4 A2a2 a2a2 |
[V:3]=E,4 =E4 F2c2 c2c2 |
[V:4]z8 F,,C,A,,F, C,A,F,C |
[V:1]CAFc Afca b4 z4 |
[V:2]a8 g2b2 b2b2 |
[V:3]c16- |
[V:4]A,4 z4 =E,,C,G,,=E, C,G,E,C |
[V:1]=EcG=e cgeb a4 z4 |
[V:2]b8 a8- |
[V:3]c16- |
[V:4]C,,4 z4 F,,C,A,,F, C,A,F,C |
[V:1]CAFc Afca a4 z4 |
[V:2]a16- |
[V:3]c8 B8- |
[V:4]A,4 z4 D,,B,,F,,D, B,,F,D,B, |
[V:1]B,FDB FdBa g4 z4 |
[V:2]a8 g8- |
[V:3]B16- |
[V:4]D,4 z4 E,,B,,G,,E, B,,G,E,B, |
[V:1]B,GEB GeBg f4 z4 |
[V:2]g8 f8- |
[V:3]B8 G8- |
[V:4]E,4 z4 =B,,G,D,=B, G,DB,G |
[V:1]=B,GD=B GdBf e4 z4 |
[V:2]f8 e8- |
[V:3]G16- |
[V:4]=B,4 z4 C,,G,,E,,C, G,,E,C,G, |
[V:1]CGEc Gecg a4 z4 |
[V:2]e8 zD=BD zDBD |
[V:3]G8 =B8 |
[V:4]E,4 z4 F,4 F4 |
[V:1]g4 fedc a8 |
[V:2]zCcC zCcC zD=BD zDBD |
[V:3]c8 =B8 |
[V:4]E4 E,4 F,4 F4 |
[V:1]g4 fedc _ddcd edfd |
[V:2]zCcC zCcC A4 z4 |
[V:3]c4 >G4 F4 z4 |
[V:4]E4 E,4 F,4 z4 |
[V:1]a4 gfed c6 d2 |
[V:2]z8 z2E2 z2F2 |
[V:3]z8 z2=A,2 G,2G,2 |
[V:4](3:2:2z8 z^F,2G,2 G,,2|
[V:1]zeag g2z2 >e2ag g2z2 |
[V:2]Ecfe e2z2 >c2fe e2z2 |
[V:3]G,4 zEAG G2z2 >E2AG |
[V:4]C,4 zCFE E2z2 >C2FE |
[V:1]zc=bc' c'2e2 d2a2 g2=B2 |
[V:2]z4 >G4 A4 z2D2 |
[V:3]G4 z2G2 F4 z2G,2 |
[V:4]E4 z2C,2 F,4 G,4 |
[V:1]c4 z12 |
[V:2]G4 A2F2 E4 F2D2 |
[V:3]C,2C,2 C,2C,2 C,2C,2 C,2C,2 |
[V:4]E4 F2D2 C2G2 A2F2 |
[V:1]c4 _d2B2 A4 B2G2 |
[V:2]E4 =E4 F4 z4 |
[V:3]C,2C,2 C,2C,2 c4 _d2B2 |
[V:4]E2C2 B,2G,2 F,2F,,2 F,,2F,,2 |
[V:1]F4 z4 f4 _g2e2 |
[V:2]C4 _D2B,2 A,4 =A,4 |
[V:3]A4 B2G2 F4 E2C2 |
[V:4]F,,2F,,2 F,,2F,,2 F,,2F,,2 F,,2F,,2 |
[V:1]_d4 e2c2 B4 z4 |
[V:2]F4 _G2E2 _D4 =D4 |
[V:3]B,4 z4 B4 _c2A2 |
[V:4]B,,2B,,2 B,,2B,,2 B,,2B,,2 B,,2B,,2 |
[V:1]e4 f2_d2 c4 d2B2 |
[V:2]E4 z4 E4 F2_D2 |
[V:3]G8 A4 z4 |
[V:4]E,2E,2 E,2E,2 E,2E,2 E,2E,2 |
[V:1]A4 G2F2 E2E2 E2E2 |
[V:2]C4 >_D4 C4 z4 |
[V:3]z8 z2C2 B,2A,2 |
[V:4]A,2A,,2 A,,2A,,2 A,,2A,2 G,2F,2 |
[V:1]E6 FG A2e2 e2e2 |
[V:2]z8 z2c2 B2A2 |
[V:3]G,2F,2 E,2_D,2 C,2A2 G2F2 |
[V:4]E,2_D,2 C,2B,,2 A,,4 z4 |
[V:1]e6 fg a2zb c'2zb |
[V:2]G2F2 E2_D2 C4 z4 |
[V:3]E2_D2 C2B,2 A,4 z4 |
[V:4]z16 |
[V:1]a2zg f2ze d2z4 zb |
[V:2]z8 B2z4 zg |
[V:3]z8 F4 z4 |
[V:4]z8 A,4 z4 |
[V:1]a2z4 zg f2ze d2zc |
[V:2]f2z4 ze d2zc B2zA |
[V:3]z16 |
[V:4]z16 |
[V:1]B4 c2A2 G4 A2F2 |
[V:2]G4 A2F2 E4 z4 |
[V:3]z8 B,4 C2A,2 |
[V:4]E,2E,,2 z4 E,2E,,2 z4 |
[V:1]E4 D2C2 B,2B,2 B,2B,2 |
[V:2]z16 |
[V:3]G,4 >A,4 G,2G,2 F,2E,2 |
[V:4]E,2E,,2 E,,2E,,2 E,,2E,2 D,2C,2 |
[V:1]B,6 CD EFGA Bcde |
[V:2]z16 |
[V:3]D,2C2 B,2A,2 G,4 z4 |
[V:4]B,,2A,,2 G,,2F,,2 E,,4 z4 |
[V:1]B4 A4 G4 z4 |
[V:2]z16 |
[V:3]z2G2 F2B,2 E4 z4 |
[V:4](3:2:2z8 zE,,2(3G,, E,,G,,(3B,,G,,B,,|
[V:1]z8 b4 c'ac'a |
[V:2]B4 cAcA G4 z4 |
[V:3]G4 AFAF E2E,2 z4 |
[V:4]E,4 z4 G4 AFAF |
[V:1]g4 z4 edeB AGFE |
[V:2]g4 afaf edeB AGFE |
[V:3]B4 cAcA GdeB AGFE |
[V:4]E2E,2 z4 EDEB, A,G,F,E, |
[V:1]D2B2 B2B2 edeB AGFE |
[V:2]D2B2 B2B2 edeB AGFE |
[V:3]D2B2 B2B2 edeB AGFE |
[V:4]D,2B,2 B,2B,2 EDEB, A,G,F,E, |
[V:1]D2B2 B2B2 edeG Aafe |
[V:2]D2B2 B2B2 e8 |
[V:3]D2B2 B2B2 B4 A4- |
[V:4]D,8 C,4 F,4 |
[V:1]dcdF Gded cBcE Ffdc |
[V:2]d8 c8 |
[V:3]A4 G8 F4- |
[V:4]B,,4 E,4 A,,4 D,4 |
[V:1]B=ABD EBcB _AGAF GFGE |
[V:2]B8 A4 G4 |
[V:3]F4 E4 >D4 E2E2 |
[V:4]G,,4 C,4 F,,2B,,2 E,,2=A,,2 |
[V:1]B12 _c2=A2 |
[V:2]F4 _G2E2 F4 z4 |
[V:3]D4 E2C2 D4 z4 |
[V:4]B,,4 z4 D4 E2C2 |
[V:1]B12 _c2=A2 |
[V:2]F4 _G2E2 F4 z4 |
[V:3]D4 E2C2 D4 z4 |
[V:4]D4 z4 D4 E2C2 |
[V:1]B2>=A2 B2>A2 B8 |
[V:2]z8 B4 c2A2 |
[V:3]z8 G4 A2F2 |
[V:4]D4 z12 |
[V:1]_d4 >c4 c8- |
[V:2]G16 |
[V:3]=E16 |
[V:4]B,16 |
[V:1]c=efg agba c'2z6 |
[V:2]A4 z12 |
[V:3]F4 z12 |
[V:4]A,4 z12 |
[V:1]_c4 >B4 B8- |
[V:2]F16 |
[V:3]D16 |
[V:4]A,16 |
[V:1]Bdef gfag b2z4 za |
[V:2]G4 z12 |
[V:3]E4 z12 |
[V:4]G,4 z12 |
[V:1]g2zf e2zd c2z4 zB |
[V:2]z8 E4 z4 |
[V:3]z8 A,4 z4 |
[V:4]z8 A,4 z4 |
[V:1]A2zG F2zc =E4 F2cA |
[V:2]z8 _D4 C2AF |
[V:3]z8 B,4 A,2F,2 |
[V:4]z8 G,,4 A,,2F,,2 |
[V:1]G4 F2E<e d<cB<A G<Fc/E3/ |
[V:2]E4 D2E2 C8 |
[V:3]B,4 >E4 E6 EG, |
[V:4]B,,4 >G,,4 A,,6 =A,,2 |
[V:1]E4 D2A2 A4 G2e2 |
[V:2]B,4 >D4 D4 E2G2 |
[V:3]G,4 F,2F2 F4 E2B,2 |
[V:4]B,,2B,,2 B,,2B,,2 B,,2B,,2 B,,2B,,2 |
[V:1]e4 d2a4 <a4 A2 |
[V:2]G4 F2f4 <f4 F2 |
[V:3]B,4 >D4 D8 |
[V:4]B,,2B,,2 B,,2B,,2 B,,2B,,2 B,,2B,,2 |
[V:1]G2e2 _d2=B4 <c4 _BA |
[V:2]E8- E2=E2 F2z2 |
[V:3]E2B,4 G,2 A,4 z4 |
[V:4]E,4 G,,4 A,,4 z4 |
[V:1]GF=EF EFAF _E6 F2 |
[V:2]z8 z2C2 B,2D2 |
[V:3]z8 z2_G,2 =G,2A,2 |
[V:4](3:2:2z8 z=A,,2B,,2 B,,2|
[V:1]zGcB B2z2 >G2cB B2z2 |
[V:2]EEAG G2z2 >E2AG G2z2 |
[V:3]G,4 zG,CB, B,2z2 >G,2CB, |
[V:4]E,4 zE,A,G, G,2z2 >E,2A,G, |
[V:1]zGfe e2_d2 cagf c'2z2 |
[V:2]zE_dc c2B2 A4 z4 |
[V:3]B,2z2 >G,2A,B, C4 z4 |
[V:4]G,2z2 >E,2F,G, A,4 zF,,A,,F,, |
[V:1]z8 a8- |
[V:2]z8 zcac z_cac |
[V:3]z8 F8- |
[V:4]C,A,,F,C, A,F,CA, F4 E4 |
[V:1]a4 g4 fc'af e2d2 |
[V:2]zBaB zBgB2 <c2A G2F2 |
[V:3]F4 E4 A,4 B,2B,2 |
[V:4]D4 E4 A,4 B,2B,2 |
[V:1]e4 z12 |
[V:2]E4 z12 |
[V:3]E2z2 GEc=A B2B2 Acde |
[V:4]E,2E,,2 z2E,2 D,2D,,2 C,,2F,,2 |
[V:1]z16 |
[V:2]z16 |
[V:3]d4 CA,FD EFG>B, CA,F,D, |
[V:4]B,,2B,2 z2A,,2 G,,4 A,,2B,,2 |
[V:1]z4 gec'=a b2b2 ac'd'e' |
[V:2]z4 >e4 d2D2 C2F2 |
[V:3]E,4 z12 |
[V:4]E,2E,,2 z12 |
[V:1]d'4 cAfd efg>B cAFD |
[V:2]B2B,2 z2A,2 G,4 A,2B,2 |
[V:3]z16 |
[V:4]z16 |
[V:1]E4 BGcA2 <B2g afed |
[V:2]E4 GEAF2 <G2B cAGF |
[V:3]z8 E,G,B,E E,2z2 |
[V:4]E,,E,B,,G,, E,,2E,,2 E,,2E,,2 E,,2E,,2 |
[V:1]e2>G2 BGcA2 <B2G AFED |
[V:2]G2>E2 GEAF2 <G2B, C2A,2 |
[V:3]z8 E,G,B,E E,2F,2 |
[V:4]E,,E,B,,G,, E,,2E,,2 E,,2E,,2 E,,2E,,2 |
[V:1]E4- EDFE GFAG BAcB |
[V:2]G,4 z12 |
[V:3]E,4 z4 EDFE GFAG |
[V:4]E,,E,B,,G,, E,,4 z8 |
[V:1]_d4 c2B2 =A2e2 =d2c2 |
[V:2]z16 |
[V:3]B4 A2G2 F2c2 =B2=A2 |
[V:4]=E,2E,2 E,2E,2 F,2F,2 ^F,2F,2 |
[V:1]D8 E4 z4 |]
[V:2]A,8 G,4 z4 |]
[V:3]F,8 E,4 z4 |]
[V:4]E,,8- E,,4 z4 |]

